X: 91
T: Słuszna rzecz, Panie, Tobie chwałę dawać
C: Mikołaj Gomółka
%%abc-version 2.0
%%abcx-abcm2ps-target-version 5.9.1 (29 Sep 2008)
%%abc-creator hum2abc beta
%%abcx-conversion-date 2021/10/04 07:59:09
%%abc-edited-by Anna Matuszewska
%%abcx-initial-encoding-date 2020-02-16
%%humdrum-veritas 3711665872
%%humdrum-veritas-data 1025879361
%%linebreak <none>
%%barnumbers 0
L: 1/4
M: C|
N: Derived from pl-wn--sd-xvi-qu-273--092_gomolka-mikolaj--sluszna-rzecz-panie-tobie-chwale-dawac.krn
%%staves [1 2 3 4]
V: 1 clef=treble
V: 2
V: 3 clef=alto
V: 4
K: F
[V:1] c4d2B2 | 
[V:2] G4B3A | 
[V:3] E4F2GF | 
[V:4] C4B,2G,2 [|] 
[V:1] c2>B2A2c2 | 
[V:2] GFG2A2A2 | 
[V:3] EDE2F2F2 | 
[V:4] A,4F,2F,2 [|] 
[V:1] B2B2A2A2 | 
[V:2] G2G2F2F2 | 
[V:3] D2_EDCB,CD | 
[V:4] G,2_E,2F,2F,2 [|] 
[V:1] G2c2d2B2 | 
[V:2] E2AGF2BA | 
[V:3] E2FEDCD2 | 
[V:4] C2A,2B,A,G,F, [|] 
[V:1] c2>B2A2d2 | 
[V:2] GFG2FGA2 | 
[V:3] E2>D2C2FE | 
[V:4] E,D,C,2F,E,D,C, [|] 
[V:1] d2d2c4 | 
[V:2] BAGFEF2E | 
[V:3] DCB,A,G,F,G,2 | 
[V:4] B,,2B,,2C,4 [|] 
[V:1] c2 | 
[V:2] F2 | 
[V:3] F,2 | 
[V:4] F,2 | 
[V:1] c2f3e [I:setbarnb 8]| 
[V:2] A2>G2F2 | 
[V:3] F,2FEDC | 
[V:4] C2A,2B,3 [|] 
[V:1] dcB2A2d2 | 
[V:2] F2G2C2GA | 
[V:3] D2>E2F2D2 | 
[V:4] A,G,2F,2G,2 [|] 
[V:1] _e4d2c2 | 
[V:2] B2A2A4 | 
[V:3] G4F2F4 | 
[V:4] _E,4F,2F,2 [|] 
[V:1] B4A2A4 | 
[V:2] G2C2D6 | 
[V:3] E2F2F3 | 
[V:4] G,4F,2D,4 [|] 
[V:1] B2>A2G2 | 
[V:2] B,2>C2D2 | 
[V:3] E2<D2CB,A, | 
[V:4] G,4G,2 [|] 
[V:1] B4A2F2 | 
[V:2] E2D2C2D2 | 
[V:3] G,4A,2B,C | 
[V:4] _E,4F,2B,,2 [|] 
[V:1] G2F4E2 | 
[V:2] B,2C2D2B,2 | 
[V:3] D2C2B,4 | 
[V:4] B,2A,2G,4 [|] 
[V:1] F2 | 
[V:2] C2 | 
[V:3] A,2 | 
[V:4] F,2 | 
[V:1] c2c2c2 [I:setbarnb 15]| 
[V:2] A2G2A2 | 
[V:3] F2E2C2 | 
[V:4] F,2C2A,2 [|] 
[V:1] A2F2c2c2 | 
[V:2] A3G/F/G4 | 
[V:3] F3E/D/E4 | 
[V:4] D2D2C4 [|] 
[V:1] d2B4AG | 
[V:2] D2>C2B,A,B,2 | 
[V:3] DEF4E2 | 
[V:4] B,2>A,2G,F,G,2 [|] 
[V:1] A8 |]  
[V:2] C8 |]  
[V:3] F8 |]  
[V:4] F,8 |]  


